!!!COM: Corelli, Arcangelo
!!!OTL: 
!!!ONM: Opus 5, No. 6
!!!OMV: 1
!!!CDT: 1653/2/17/-1713/1/8/
!!!OCY: Italia
**kern	**kern
*clefC	*clefG
*k[f#c#]	*k[f#c#]
*D:	*D:
*M4/4	*M4/4
=1	=1
4A	4cc#
4G#	4ee
4F#	4.a
4C#	.
.	8a
=2	=2
4D	8b
.	8cc#
4E	8dd
.	16ee
.	16dd
4AA	8cc#
.	8a
4A	8r
.	16cc#
.	16dd#
=3	=3
4.G#	8ee
.	8b
.	2ee
8c#	.
4F#	.
4B	4dd#
=4	=4
2E	2ee
2r	2r
=5	=5
4E	4gg#
4D#	4bb
4C#	4.ee
4GG#	.
.	8ee
=6	=6
4AA	8ff#
.	8gg#
4BB	8aa
.	16bb
.	16aa
4EE	8gg#
.	8ee
4E	8r
.	16gg#
.	16aa#
=7	=7
4.D#	8bb
.	8ff#
.	2bb
8G#	.
4C#	.
4F#	4aa#
=8	=8
4BB	4bb
2B	8r
.	8dd#
.	8ee
.	8ee
[4A	8ff#
.	8ff#
=9	=9
4A]	8b
.	16cc#
.	16dd#
8r	2ee
8G#	.
8A	.
8A	.
8B	[4dd
8B	.
=10	=10
8E	4dd]
16F#	.
16G#	.
2A	8cc#
.	8ff#
.	8dd#
.	8b
4G#	8r
.	16ee
.	16b
=11	=11
8A	8cc#
8G#	8e
8F#	2a
8E	.
8D#	.
8BB	.
8E	8g#
8AA	8f#
=12	=12
8BB	4g#
8AA	.
4BB	4f#
4E	4e
[4e	8r
.	8gg#
=13	=13
4e]	8aa
.	8aa
2d	8bb
.	8bb
.	8ee
.	16ff#
.	16gg#
8r	[4aa
8c#	.
=14	=14
8d	4aa]
8d	.
8e	4.gg#
8e	.
4A	.
.	8cc#
8r	[4ff#
8AA	.
=15	=15
8BB	4ff#]
8BB	.
8C#	4ee#
8c#	.
8A#	4ff#
8F#	.
8G#	8r
8A#	8ff#
=16	=16
4B	8dd#
.	8b
8r	8cc#
8B	8dd#
8G#	4ee
8E	.
8F#	8r
8G#	8ee
=17	=17
4A	8cc#
.	8a
8r	8b
8A	8cc#
8F#	4dd
8G#	.
8A	[4cc#
8AA	.
=18	=18
4D	8cc#]
.	8f#
4D#	8b
.	8a
4E	8g#
.	8e
[4e	8r
.	8cc#
=19	=19
4e]	8a
.	8f#
2d	8r
.	8b
.	8g#
.	8e
8r	[4ee
8c#	.
=20	=20
8A	4ee]
8F#	.
8r	2dd
8B	.
8G#	.
8E	.
8r	4cc#
8A	.
=21	=21
8D	8f#
8E	8g#
8F#	2a
8C#	.
8D	.
8BB	.
8E	4g#
8EE	.
=22	=22
8AA	4a
8BB	.
8C#	8r
8AA	8ee
8D	4.ff#
8E	.
8F#	.
8D	8bb
=23	=23
8E	8gg#
8D	8ee
8C#	8r
8AA	8aa
8D	8ff#
8C#	8ee
8BB	8dd
8AA	8cc#
=24	=24
8E	4cc#
8D	.
8E	4b
8EE	.
4AA	4.a
[4D	.
.	8ff#
=25	=25
4D]	8g#
.	8e
8C#	2a
8D	.
4E	.
4EE	4g#
=26	=26
1AA	1a
==	==
*-	*-
!!!RWG: This file only contains pitch and duration data.
!!!RWG: Transposing instruments are not transposed.
!!!RWG: Durations of rests and tied notes may be interpreted.
!!!RWG: Key is interpreted using the Humdrum key tool.
!!!SCA: 
!!!YOR: 
!!!AGN: violin
!!!AFT: stage1
!!!ENC: F. Bennion
!!!END: 1997/04/15
!!!AST: baroque
!!!YEC: Copyright 1994, Center for Computer Assisted Research in the Humanities
!!!YEM: Rights to all derivative electronic formats reserved.
!!!YEM: Refer to licensing agreement for further details.
!!!YEN: United States of America
!!!EED: W.B. Hewlett
!!!KEY: 3597899991
!!!EMD: Converted from MuseData to Humdrum Aug 9, 1999, by Bret Aarden using muse2kern.
!!!VTS: 514088332
